src/assets/type.svg

<svg fill="none" height="12" viewBox="0 0 16 12" width="16" xmlns="http://www.w3.org/2000/svg"><path d="m5.8775 1.5 1.5 1.5h6.6225v7.5h-12v-9zm.6225-1.5h-4.5c-.825 0-1.4925.675-1.4925 1.5l-.0075 9c0 .825.675 1.5 1.5 1.5h12c.825 0 1.5-.675 1.5-1.5v-7.5c0-.825-.675-1.5-1.5-1.5h-6z" fill="#808191"/></svg>

<svg width="16" height="12" viewBox="0 0 16 12" fill="none" xmlns="http://www.w3.org/2000/svg">
<path d="M5.8775 1.5L7.3775 3H14V10.5H2V1.5H5.8775ZM6.5 0H2C1.175 0 0.5075 0.675 0.5075 1.5L0.5 10.5C0.5 11.325 1.175 12 2 12H14C14.825 12 15.5 11.325 15.5 10.5V3C15.5 2.175 14.825 1.5 14 1.5H8L6.5 0Z" fill="#808191"/>
</svg>
